; generated by PrusaSlicer 2.6.0+win64 on 2023-07-19 at 00:09:37 UTC


;
;
; 

; external perimeters extrusion width = 0.45mm
; perimeters extrusion width = 0.45mm
; infill extrusion width = 0.45mm
; solid infill extrusion width = 0.45mm
; top infill extrusion width = 0.40mm
; support material extrusion width = 0.35mm
; first layer extrusion width = 0.42mm

M73 P0 R77
M73 Q0 S78
M201 X1000 Y1000 Z200 E5000 ; sets maximum accelerations, mm/sec^2
M203 X200 Y200 Z12 E120 ; sets maximum feedrates, mm / sec
M204 S1250 T1250 ; sets acceleration (S) and retract acceleration (R), mm/sec^2
M205 X8.00 Y8.00 Z0.40 E4.50 ; sets the jerk limits, mm/sec
M205 S0 T0 ; sets the minimum extruding and travel feed rate, mm/sec
;TYPE:Custom
M862.3 P "MK3S" ; printer model check
M862.1 P0.4 ; nozzle diameter check
M115 U3.12.2 ; tell printer latest fw version
G90 ; use absolute coordinates
M83 ; extruder relative mode
M104 S240 ; set extruder temp
M140 S85 ; set bed temp
M190 S85 ; wait for bed temp
M109 S240 ; wait for extruder temp
G28 W ; home all without mesh bed level
G80 ; mesh bed leveling

G1 Z0.2 F720
G1 Y-3 F1000 ; go outside print area
G92 E0
G1 X60 E9 F1000 ; intro line
G1 X100 E12.5 F1000 ; intro line

G92 E0
M221 S95

; Don't change E values below. Excessive value can damage the printer.

G21 ; set units to millimeters
G90 ; use absolute coordinates
M83 ; use relative distances for extrusion
M900 K0.08 ; Filament gcode LA 1.5
M900 K45 ; Filament gcode LA 1.0
M107
;LAYER_CHANGE
;Z:0.2
;HEIGHT:0.2
;BEFORE_LAYER_CHANGE
G92 E0.0
;0.2


G1 E-1 F2100
G1 Z.2 F720
;AFTER_LAYER_CHANGE
;0.2
G1 Z.4
G1 X90.975 Y74.563 F10800
G1 Z.2 F720
G1 E1 F2100
M204 S800
;TYPE:Skirt/Brim
;WIDTH:0.42
G1 F1200
G1 X91.563 Y73.975 E.02607
G1 X92.521 Y73.311 E.03655
G1 X93.596 Y72.861 E.03654
G1 X94.661 Y72.649 E.03405
G1 X151.651 Y67.73 E1.79353
G1 X152.445 Y67.745 E.0249
G1 X153.524 Y67.832 E.03394
G1 X154.637 Y68.086 E.03579
G1 X156.468 Y68.869 E.06244
G1 X157.421 Y69.497 E.03579
G1 X158.579 Y70.552 E.04912
G1 X159.53 Y71.797 E.04912
G1 X160.314 Y73.351 E.05457
G1 X164.034 Y82.785 E.31796
G1 X164.489 Y84.572 E.05782
G1 X164.589 Y85.853 E.04029
G1 X164.943 Y101.09 E.47787
G1 X165.325 Y125.235 E.75714
G1 X165.007 Y133.16 E.24868
G1 X164.821 Y134.834 E.05281
G1 X164.517 Y135.934 E.03578
G1 X163.872 Y137.362 E.04913
G1 X162.702 Y138.972 E.0624
G1 X161.877 Y139.761 E.03579
G1 X160.591 Y140.656 E.04913
G1 X158.76 Y141.438 E.06243
G1 X157.461 Y141.727 E.04173
G1 X150.926 Y142.679 E.20706
G1 X149.209 Y142.743 E.05387
G1 X94.632 Y137.348 E1.71956
G1 X93.92 Y137.226 E.02265
G1 X93.047 Y136.943 E.02877
G1 X92.306 Y136.565 E.02608
G1 X91.563 Y136.025 E.0288
G1 X90.764 Y135.177 E.03653
G1 X90.159 Y134.181 E.03654
G1 X89.774 Y133.081 E.03654
G1 X89.624 Y131.807 E.04022
G1 X89.623 Y78.2 E1.68081
G1 X89.722 Y77.163 E.03266
G1 X89.938 Y76.359 E.0261
G1 X90.311 Y75.521 E.02876
G1 X90.941 Y74.612 E.03468
M204 S1000
; printing object Carter_Electronique id:0 copy 0
;WIPE_START
G1 F8640
G1 X91.563 Y73.975 E-.20558
G1 X92.521 Y73.311 E-.26914
G1 X93.596 Y72.861 E-.26909
G1 X94.661 Y72.649 E-.25074
G1 X94.685 Y72.647 E-.00545
;WIPE_END
G1 Z.4 F720
G1 X152.338 Y70.12 F10800
G1 Z.2 F720
G1 E1 F2100
M204 S800
;TYPE:Support material
G1 F1200
G1 X152.995 Y70.15 E.02062
G1 X154.109 Y70.404 E.03583
G1 X155.158 Y70.852 E.03576
G1 X156.111 Y71.481 E.0358
G1 X156.936 Y72.27 E.03579
G1 X157.607 Y73.194 E.0358
G1 X158.103 Y74.222 E.03579
G1 X158.406 Y75.323 E.0358
G1 X158.509 Y76.46 E.0358
G1 X158.406 Y77.597 E.0358
G1 X158.103 Y78.698 E.0358
G1 X157.615 Y79.71 E.03523
G1 X158.87 Y80.247 E.0428
G1 X159.831 Y80.884 E.03615
G1 X160.66 Y81.683 E.0361
G1 X161.331 Y82.618 E.03608
G1 X161.823 Y83.657 E.03604
G1 X162.119 Y84.766 E.03599
G1 X162.213 Y85.908 E.03593
G1 X162.101 Y87.047 E.03588
G1 X161.788 Y88.145 E.0358
G1 X161.285 Y89.169 E.03577
G1 X160.609 Y90.086 E.03572
G1 X160.262 Y90.413 E.01495
G1 X160.799 Y91.528 E.0388
G1 X161.102 Y92.628 E.03577
G1 X161.205 Y93.765 E.0358
G1 X161.102 Y94.903 E.03583
G1 X160.799 Y96.003 E.03577
G1 X160.546 Y96.528 E.01827
G1 X160.994 Y96.956 E.01943
G1 X161.665 Y97.879 E.03578
G1 X162.16 Y98.908 E.0358
G1 X162.464 Y100.008 E.03578
G1 X162.566 Y101.146 E.03582
G1 X162.464 Y102.283 E.03579
G1 X162.16 Y103.383 E.03578
G1 X161.665 Y104.412 E.0358
G1 X160.994 Y105.335 E.03578
G1 X160.095 Y106.195 E.03901
G1 X160.282 Y106.374 E.00812
G1 X160.953 Y107.298 E.0358
G1 X161.449 Y108.326 E.03579
G1 X161.753 Y109.427 E.03581
G1 X161.855 Y110.564 E.03579
G1 X161.753 Y111.701 E.03579
G1 X161.449 Y112.802 E.03581
G1 X160.953 Y113.83 E.03579
G1 X160.282 Y114.754 E.0358
G1 X159.811 Y115.205 E.02045
G1 X160.361 Y116.347 E.03974
G1 X160.664 Y117.448 E.0358
G1 X160.767 Y118.585 E.0358
G1 X160.664 Y119.722 E.0358
G1 X160.545 Y120.154 E.01405
G1 X161.378 Y120.95 E.03613
G1 X162.049 Y121.873 E.03578
G1 X162.544 Y122.902 E.0358
G1 X162.848 Y124.002 E.03578
G1 X162.95 Y125.139 E.03579
G1 X162.848 Y126.276 E.03579
G1 X162.544 Y127.377 E.03581
G1 X162.049 Y128.406 E.0358
G1 X161.384 Y129.321 E.03547
G1 X161.73 Y129.798 E.01848
G1 X162.226 Y130.827 E.03582
G1 X162.529 Y131.927 E.03577
G1 X162.632 Y133.064 E.0358
G1 X162.529 Y134.201 E.0358
G1 X162.226 Y135.302 E.0358
G1 X161.73 Y136.33 E.03579
G1 X161.059 Y137.254 E.0358
G1 X160.234 Y138.043 E.03579
G1 X159.281 Y138.672 E.0358
G1 X158.231 Y139.121 E.03581
G1 X157.118 Y139.375 E.03579
G1 X155.978 Y139.426 E.03578
G1 X154.846 Y139.273 E.03582
G1 X153.795 Y138.931 E.03465
G1 X152.746 Y139.624 E.03942
G1 X151.696 Y140.073 E.03581
G1 X150.583 Y140.327 E.03579
G1 X149.443 Y140.378 E.03578
G1 X148.311 Y140.225 E.03582
G1 X147.226 Y139.872 E.03577
G1 X146.22 Y139.331 E.03581
G1 X145.328 Y138.619 E.03579
G1 X144.577 Y137.759 E.0358
G1 X143.991 Y136.779 E.0358
G1 X143.59 Y135.71 E.0358
G1 X143.386 Y134.587 E.03579
G1 X143.386 Y133.445 E.03581
G1 X143.59 Y132.322 E.03579
G1 X143.991 Y131.253 E.0358
G1 X144.138 Y131.007 E.00899
G1 X144.012 Y130.862 E.00602
G1 X143.426 Y129.882 E.0358
G1 X143.025 Y128.813 E.0358
G1 X142.821 Y127.69 E.03579
G1 X142.821 Y126.548 E.03581
G1 X143.025 Y125.425 E.03579
G1 X143.426 Y124.356 E.0358
G1 X144.012 Y123.376 E.0358
G1 X144.763 Y122.516 E.0358
G1 X145.656 Y121.804 E.03581
G1 X146.706 Y121.239 E.03739
G1 X146.117 Y120.922 E.02097
G1 X145.225 Y120.21 E.03579
G1 X144.474 Y119.35 E.0358
G1 X143.888 Y118.37 E.0358
G1 X143.487 Y117.301 E.0358
G1 X143.283 Y116.178 E.03579
G1 X143.283 Y115.036 E.03581
G1 X143.487 Y113.913 E.03579
G1 X143.888 Y112.844 E.0358
G1 X144.474 Y111.864 E.0358
G1 X145.225 Y111.004 E.0358
G1 X145.364 Y110.893 E.00558
G1 X144.783 Y109.848 E.03749
G1 X144.411 Y108.742 E.03659
G1 X144.243 Y107.593 E.03641
G1 X144.277 Y106.565 E.03225
G1 X144.402 Y105.539 E.03241
G1 X144.729 Y104.414 E.03673
G1 X145.039 Y103.779 E.02216
G1 X145.38 Y103.265 E.01934
G1 X144.62 Y102.659 E.03048
G1 X143.869 Y101.799 E.0358
G1 X143.283 Y100.819 E.0358
G1 X142.882 Y99.75 E.0358
G1 X142.678 Y98.627 E.03579
G1 X142.678 Y97.485 E.03581
G1 X142.882 Y96.362 E.03579
G1 X143.283 Y95.293 E.0358
G1 X143.869 Y94.313 E.0358
G1 X144.068 Y94.085 E.00949
G1 X143.791 Y93.768 E.0132
G1 X143.206 Y92.788 E.03579
G1 X142.805 Y91.719 E.0358
G1 X142.66 Y90.921 E.02543
G1 X142.66 Y89.128 E.05622
G1 X142.805 Y88.33 E.02543
G1 X143.206 Y87.262 E.03577
G1 X143.791 Y86.281 E.03581
G1 X144.209 Y85.804 E.01989
G1 X143.985 Y85.43 E.01367
G1 X143.584 Y84.361 E.0358
G1 X143.38 Y83.237 E.03582
G1 X143.38 Y82.096 E.03578
G1 X143.584 Y80.973 E.03579
G1 X143.985 Y79.904 E.0358
G1 X144.571 Y78.924 E.0358
G1 X145.322 Y78.064 E.0358
G1 X145.902 Y77.601 E.02327
G1 X145.798 Y77.031 E.01817
G1 X145.798 Y75.889 E.03581
G1 X146.002 Y74.766 E.03579
G1 X146.403 Y73.697 E.0358
G1 X146.989 Y72.717 E.0358
G1 X147.74 Y71.857 E.0358
G1 X148.633 Y71.145 E.03581
G1 X149.638 Y70.604 E.03579
G1 X150.724 Y70.252 E.03579
G1 X151.855 Y70.098 E.03579
G1 X152.282 Y70.118 E.0134
M204 S1000
G1 X162.289 Y134.434 F10800
M204 S800
G1 F1200
G1 X162.289 Y133.043 E.04361
G1 X162.194 Y131.988 E.03321
G1 X161.907 Y130.946 E.03389
G1 X161.87 Y130.871 E.00262
G1 X161.87 Y135.258 E.13755
G1 X161.451 Y136.128 E.03028
G1 X161.451 Y129.703 E.20145
M204 S1000
G1 X162.289 Y127.516 F10800
M204 S800
G1 F1200
G1 X162.289 Y123.253 E.13366
G1 X162.225 Y123.021 E.00755
G1 X161.87 Y122.284 E.02565
G1 X161.87 Y127.995 E.17906
G1 X161.756 Y128.231 E.00822
G1 X161.451 Y128.651 E.01627
G1 X161.451 Y121.628 E.2202
G1 X161.121 Y121.174 E.0176
G1 X161.032 Y121.089 E.00386
G1 X161.032 Y136.714 E.48991
G1 X160.803 Y137.03 E.01224
G1 X160.613 Y137.211 E.00823
G1 X160.613 Y120.453 E.52544
M204 S1000
;WIPE_START
G1 F8640
G1 X160.613 Y124.784 E-1
;WIPE_END
G1 Z.4 F720
G1 X161.87 Y103.595 F10800
G1 Z.2 F720
G1 E1 F2100
M204 S800
G1 F1200
G1 X161.87 Y99.132 E.13993
G1 X161.841 Y99.028 E.00339
G1 X161.451 Y98.217 E.02822
G1 X161.451 Y104.074 E.18364
G1 X161.372 Y104.237 E.00568
G1 X161.032 Y104.705 E.01814
G1 X161.032 Y97.586 E.22321
G1 X160.737 Y97.18 E.01574
G1 X160.613 Y97.061 E.00539
G1 X160.613 Y105.23 E.25613
G1 X160.194 Y105.631 E.01818
G1 X160.194 Y91.055 E.45702
G1 X160.48 Y91.648 E.02064
G1 X160.613 Y92.131 E.01571
G1 X160.613 Y95.997 E.12122
M204 S1000
;WIPE_START
G1 F8640
G1 X160.613 Y92.131 E-.89267
G1 X160.49 Y91.683 E-.10733
;WIPE_END
G1 Z.4 F720
G1 X161.87 Y87.237 F10800
G1 Z.2 F720
G1 E1 F2100
M204 S800
G1 F1200
G1 X161.87 Y85.88 E.04255
G1 X161.784 Y84.824 E.03322
G1 X161.503 Y83.774 E.03408
G1 X161.451 Y83.665 E.00379
G1 X161.451 Y88.061 E.13783
G1 X161.032 Y88.914 E.0298
G1 X161.032 Y82.783 E.19223
G1 X160.613 Y82.2 E.02251
G1 X160.613 Y89.508 E.22914
G1 X160.354 Y89.86 E.0137
G1 X160.194 Y90.011 E.0069
G1 X160.194 Y81.706 E.2604
G1 X159.775 Y81.302 E.01825
G1 X159.775 Y114.769 E1.04933
G1 X160.026 Y114.53 E.01087
G1 X160.194 Y114.298 E.00898
G1 X160.194 Y106.83 E.23415
G1 X160.613 Y107.407 E.02236
G1 X160.613 Y113.721 E.19797
G1 X160.661 Y113.655 E.00256
G1 X161.032 Y112.885 E.0268
G1 X161.032 Y108.243 E.14555
G1 X161.13 Y108.446 E.00707
G1 X161.417 Y109.488 E.03389
G1 X161.451 Y109.863 E.01181
G1 X161.451 Y112.156 E.0719
M204 S1000
;WIPE_START
G1 F8640
G1 X161.451 Y109.863 E-.52946
G1 X161.417 Y109.488 E-.08694
G1 X161.13 Y108.446 E-.24956
G1 X161.032 Y108.243 E-.05205
G1 X161.032 Y108.598 E-.08199
;WIPE_END
G1 Z.4 F720
G1 X160.194 Y137.846 F10800
G1 Z.2 F720
G1 E1 F2100
M204 S800
G1 F1200
G1 X160.194 Y117.019 E.65302
G1 X160.042 Y116.467 E.01795
G1 X159.775 Y115.913 E.01928
G1 X159.775 Y137.939 E.69061
G1 X159.356 Y138.216 E.01575
G1 X159.356 Y80.976 E1.79472
G1 X158.937 Y80.698 E.01577
M73 P1 R77
M73 Q1 S78
G1 X158.937 Y138.45 E1.81077
G1 X158.518 Y138.629 E.01429
G1 X158.518 Y80.465 E1.82369
G1 X158.099 Y80.286 E.01429
G1 X158.099 Y138.803 E1.83476
G1 X157.68 Y138.898 E.01347
G1 X157.68 Y79.922 E1.84915
M204 S1000
G1 X158.099 Y78.073 F10800
M204 S800
M73 P1 R76
M73 Q1 S77
G1 F1200
G1 X158.099 Y75.695 E.07456
G1 X158.071 Y75.384 E.00979
G1 X157.784 Y74.342 E.03389
G1 X157.68 Y74.127 E.00749
G1 X157.68 Y79.184 E.15856
M204 S1000
G1 X157.261 Y139.168 F10800
M204 S800
G1 F1200
G1 X157.261 Y73.295 E2.0654
G1 X156.842 Y72.718 E.02236
G1 X156.842 Y139.047 E2.0797
G1 X156.423 Y139.066 E.01315
G1 X156.423 Y72.249 E2.095
G1 X156.004 Y71.849 E.01816
G1 X155.993 Y139.086 E2.10817
G1 X155.585 Y139.03 E.01291
G1 X155.585 Y71.541 E2.11607
G1 X155.166 Y71.264 E.01575
G1 X155.166 Y138.974 E2.123
G1 X154.922 Y138.941 E.00772
G1 X154.747 Y138.884 E.00577
G1 X154.747 Y71.046 E2.12701
G1 X154.328 Y70.867 E.01429
G1 X154.328 Y138.748 E2.12836
G1 X153.909 Y138.611 E.01382
G1 X153.909 Y70.706 E2.12911
G1 X153.49 Y70.611 E.01347
G1 X153.49 Y138.726 E2.1357
G1 X153.071 Y139.002 E.01573
M73 P2 R76
M73 Q2 S77
G1 X153.071 Y70.515 E2.14736
G1 X152.95 Y70.487 E.00389
G1 X152.652 Y70.474 E.00935
G1 X152.652 Y139.279 E2.15733
G1 X152.234 Y139.474 E.01446
G1 X152.234 Y70.455 E2.16404
G1 X151.815 Y70.446 E.01314
G1 X151.815 Y139.653 E2.16994
G1 X151.591 Y139.748 E.00763
G1 X151.396 Y139.793 E.00627
G1 X151.396 Y70.503 E2.17254
G1 X150.977 Y70.56 E.01326
G1 X150.977 Y139.889 E2.17376
G1 X150.558 Y139.984 E.01347
G1 X150.558 Y70.662 E2.17354
G1 X150.139 Y70.799 E.01382
M73 P2 R75
M73 Q2 S76
G1 X150.139 Y140.007 E2.16997
G1 X149.72 Y140.026 E.01315
G1 X149.72 Y70.946 E2.16595
G1 X149.301 Y71.171 E.01491
G1 X149.301 Y140.016 E2.15859
G1 X148.882 Y139.959 E.01326
G1 X148.882 Y71.397 E2.14971
G1 X148.463 Y71.715 E.01649
G1 X148.463 Y139.903 E2.13799
G1 X148.044 Y139.781 E.01368
G1 X148.044 Y72.049 E2.12369
G1 X147.975 Y72.104 E.00277
M73 P3 R75
G1 X147.625 Y72.505 E.01669
G1 X147.625 Y139.645 E2.10513
G1 X147.36 Y139.558 E.00875
M73 Q3 S76
G1 X147.206 Y139.476 E.00547
G1 X147.206 Y73.016 E2.08381
G1 X146.787 Y73.717 E.02561
G1 X146.787 Y120.897 E1.4793
G1 X146.368 Y120.671 E.01493
G1 X146.368 Y74.757 E1.4396
G1 X146.331 Y74.857 E.00334
G1 X146.138 Y75.92 E.03387
G1 X146.138 Y77 E.03386
G1 X146.272 Y77.74 E.02358
G1 X145.949 Y77.998 E.01296
G1 X145.949 Y120.353 E1.32801
G1 X145.53 Y120.019 E.0168
G1 X145.53 Y111.195 E.27667
G1 X145.46 Y111.251 E.00281
G1 X145.111 Y111.65 E.01662
G1 X145.111 Y119.564 E.24814
G1 X144.749 Y119.15 E.01724
G1 X144.692 Y119.054 E.0035
G1 X144.692 Y112.16 E.21616
G1 X144.273 Y112.862 E.02563
G1 X144.273 Y118.352 E.17214
G1 X144.195 Y118.222 E.00475
G1 X143.854 Y117.313 E.03044
G1 X143.854 Y113.418 E.12212
M204 S1000
;WIPE_START
G1 F8640
G1 X143.854 Y117.313 E-.89937
G1 X144.007 Y117.721 E-.10063
;WIPE_END
G1 Z.4 F720
G1 X146.787 Y139.443 F10800
G1 Z.2 F720
G1 E1 F2100
M204 S800
G1 F1200
G1 X146.787 Y121.581 E.56005
G1 X146.368 Y121.806 E.01491
G1 X146.368 Y139.014 E.53954
G1 X145.949 Y138.68 E.0168
G1 X145.949 Y122.032 E.52199
G1 X145.843 Y122.089 E.00377
G1 X145.53 Y122.339 E.01256
G1 X145.53 Y138.334 E.50151
G1 X145.111 Y137.855 E.01995
G1 X145.111 Y122.673 E.47602
G1 X144.999 Y122.762 E.00449
G1 X144.692 Y123.113 E.01462
G1 X144.692 Y137.291 E.44454
G1 X144.273 Y136.564 E.02631
G1 X144.273 Y131.468 E.15978
G1 X143.918 Y132.413 E.03165
G1 X143.854 Y132.767 E.01128
G1 X143.854 Y135.931 E.0992
M204 S1000
;WIPE_START
G1 F8640
G1 X143.854 Y132.767 E-.73058
G1 X143.918 Y132.413 E-.08306
G1 X144.202 Y131.657 E-.18636
;WIPE_END
G1 Z.4 F720
G1 X145.53 Y110.842 F10800
G1 Z.2 F720
G1 E1 F2100
M204 S800
G1 F1200
G1 X145.53 Y103.653 E.22541
G1 X145.334 Y103.948 E.0111
G1 X145.111 Y104.405 E.01594
G1 X145.111 Y109.738 E.16721
G1 X144.742 Y108.662 E.03567
G1 X144.692 Y108.32 E.01084
G1 X144.692 Y105.15 E.09939
M204 S1000
G1 X145.53 Y103.167 F10800
M204 S800
G1 F1200
G1 X145.53 Y78.342 E.77837
G1 X145.111 Y78.821 E.01995
G1 X145.111 Y102.616 E.74608
G1 X144.856 Y102.412 E.01024
G1 X144.692 Y102.225 E.0078
G1 X144.692 Y79.382 E.71623
G1 X144.273 Y80.103 E.02615
G1 X144.273 Y85.231 E.16078
G1 X143.913 Y84.27 E.03218
G1 X143.854 Y83.948 E.01026
G1 X143.854 Y80.736 E.10071
M204 S1000
;WIPE_START
G1 F8640
G1 X143.854 Y83.948 E-.74166
G1 X143.913 Y84.27 E-.07559
G1 X144.191 Y85.011 E-.18275
;WIPE_END
G1 Z.4 F720
G1 X144.273 Y130.903 F10800
G1 Z.2 F720
G1 E1 F2100
M204 S800
G1 F1200
G1 X144.273 Y123.601 E.22895
G1 X143.854 Y124.302 E.02561
G1 X143.854 Y129.936 E.17665
G1 X143.733 Y129.734 E.00738
G1 X143.435 Y128.939 E.02662
G1 X143.435 Y124.816 E.12927
M204 S1000
;WIPE_START
G1 F8640
G1 X143.435 Y128.939 E-.95201
G1 X143.508 Y129.134 E-.04799
;WIPE_END
G1 Z.4 F720
G1 X144.273 Y102.003 F10800
G1 Z.2 F720
G1 E1 F2100
M204 S800
G1 F1200
G1 X144.273 Y94.366 E.23945
G1 X144.145 Y94.513 E.00611
G1 X143.854 Y95 E.01779
G1 X143.854 Y101.112 E.19164
G1 X143.59 Y100.671 E.01612
G1 X143.435 Y100.257 E.01386
G1 X143.435 Y95.372 E.15317
M204 S1000
G1 X144.273 Y94.061 F10800
M204 S800
G1 F1200
G1 X144.273 Y86.246 E.24503
G1 X144.067 Y86.482 E.00982
G1 X143.854 Y86.838 E.01301
G1 X143.854 Y93.211 E.19982
G1 X143.513 Y92.64 E.02085
G1 X143.435 Y92.433 E.00694
G1 X143.435 Y87.616 E.15103
G1 X143.133 Y88.421 E.02696
G1 X143.016 Y89.066 E.02055
G1 X143.016 Y91.799 E.08569
M204 S1000
;WIPE_START
G1 F8640
G1 X143.016 Y89.066 E-.63106
G1 X143.133 Y88.421 E-.15136
G1 X143.435 Y87.616 E-.19853
G1 X143.435 Y87.699 E-.01905
